Sources/FrostedUI/Resources/Icons.xcassets/webcamOn32.imageset/webcam-on-32.svg

<svg width="32" height="32" viewBox="0 0 32 32" fill="none" xmlns="http://www.w3.org/2000/svg" data-fui-icon="true">
  <path
    d="M16.5 4.75C19.5476 4.75 22.1183 6.76987 22.957 9.54297L25.3154 7.3916C26.8238 6.01506 29.2495 7.08504 29.25 9.12695V22.8721C29.25 24.9145 26.8239 25.9847 25.3154 24.6074L22.958 22.4551C22.12 25.2293 19.5484 27.25 16.5 27.25H9.5C5.77211 27.25 2.75009 24.2278 2.75 20.5V11.5C2.75013 7.77219 5.77216 4.75 9.5 4.75H16.5ZM9.5 6.25C6.60059 6.25 4.25013 8.60062 4.25 11.5V20.5L4.25684 20.7705C4.3977 23.5442 6.6913 25.75 9.5 25.75H16.5C19.1902 25.75 21.4063 23.7253 21.7109 21.1162L21.7344 20.9951C21.8791 20.4511 22.5364 20.1672 23.0293 20.502L23.1328 20.583L26.3271 23.5C26.8727 23.9978 27.75 23.6109 27.75 22.8721V9.12695C27.7496 8.38864 26.8726 8.00171 26.3271 8.49902L23.1328 11.415C22.6003 11.9011 21.7886 11.5451 21.7109 10.8828C21.4057 8.27441 19.1898 6.25 16.5 6.25H9.5Z"
    fill="currentColor"
  />
</svg>

<svg xmlns="http://www.w3.org/2000/svg" width="32" height="32" fill="none" data-fui-icon="true" viewBox="0 0 32 32"><path fill="currentColor" d="M16.5 4.75a6.75 6.75 0 0 1 6.457 4.793l2.358-2.151c1.509-1.377 3.935-.307 3.935 1.735v13.745c0 2.043-2.426 3.113-3.935 1.735l-2.357-2.152A6.75 6.75 0 0 1 16.5 27.25h-7a6.75 6.75 0 0 1-6.75-6.75v-9A6.75 6.75 0 0 1 9.5 4.75zm-7 1.5a5.25 5.25 0 0 0-5.25 5.25v9l.007.27A5.25 5.25 0 0 0 9.5 25.75h7a5.25 5.25 0 0 0 5.21-4.634l.024-.12c.145-.545.802-.829 1.295-.494l.104.081 3.194 2.917a.85.85 0 0 0 1.423-.628V9.127a.85.85 0 0 0-1.423-.628l-3.194 2.916c-.533.486-1.344.13-1.422-.532A5.25 5.25 0 0 0 16.5 6.25z"/></svg>
